brandFactory_export/3.Masa/Llamada saliente_3Masa.svg

<?xml version="1.0" encoding="UTF-8"?>
<svg width="24px" height="24px" viewBox="0 0 24 24" version="1.1" xmlns="http://www.w3.org/2000/svg" xmlns:xlink="http://www.w3.org/1999/xlink">
    <title>3.Masa/Llamada saliente_3Masa</title>
    <g id="Symbols" stroke="none" stroke-width="1" fill="none" fill-rule="evenodd">
        <g id="3.Masa/Llamada-saliente_3Masa" fill="#5CB615" fill-rule="nonzero">
            <path d="M22.1714286,15.902521 C23.1361345,16.8672269 23.6369748,17.8722689 23.6537815,18.8907563 C23.6739496,19.9462185 23.1764706,21.0117647 22.1815126,22.0571429 C21.8319328,22.4235294 21.3445378,22.7731092 21.1831933,22.8907563 C21.1731092,22.897479 21.1663866,22.9042017 21.1630252,22.9042017 C21.1529412,22.9109244 21.1428571,22.9176471 21.1327731,22.9277311 C20.4571429,23.394958 19.6,23.6268908 18.6084034,23.6268908 C17.5697479,23.6268908 16.3798319,23.3714286 15.092437,22.8571429 C12.4672269,21.8117647 9.59663866,19.7747899 6.78991597,16.9680672 L6.78319328,16.9613445 L6.69579832,16.8739496 C6.69243697,16.8739496 6.69243697,16.8705882 6.68907563,16.8705882 C3.88235294,14.0638655 1.84537815,11.1932773 0.8,8.56806723 C-0.201680672,6.05714286 -0.225210084,3.91260504 0.729411765,2.52773109 C0.736134454,2.51764706 0.742857143,2.50756303 0.752941176,2.49747899 C0.756302521,2.49411765 0.76302521,2.48739496 0.766386555,2.47731092 C0.880672269,2.31596639 1.23361345,1.83193277 1.6,1.4789916 C2.62521008,0.500840336 3.66722689,0.00336134454 4.69915966,0.00336134454 L4.76302521,0.00336134454 C5.78151261,0.0235294118 6.78655462,0.521008403 7.7512605,1.48571429 C8.14117647,1.87563025 8.4605042,2.2789916 8.69579832,2.68571429 C9.21344538,3.51932773 9.40168067,4.38319328 9.25378151,5.24705882 C9.10588235,6.11092437 8.62521008,6.95462185 7.81848739,7.76134454 C7.61008403,7.9697479 7.46890756,8.09411765 7.22352941,8.29243697 C7.14621849,8.43361345 7.19327731,8.88067227 7.81848739,9.79495798 C8.54453782,10.8537815 9.75462185,12.1008403 10.6016807,12.9512605 L10.702521,13.0521008 C11.5495798,13.8991597 12.8,15.1092437 13.8588235,15.8352941 C14.5680672,16.3226891 14.994958,16.4571429 15.2201681,16.4571429 C15.2840336,16.4571429 15.3310924,16.4470588 15.3613445,16.4268908 C15.5596639,16.1815126 15.6840336,16.0403361 15.892437,15.8319328 C16.6991597,15.0252101 17.5462185,14.5411765 18.4067227,14.3966387 C18.5983193,14.3630252 18.7865546,14.3495798 18.9747899,14.3495798 C19.6470588,14.3495798 20.3159664,14.5546218 20.9680672,14.9579832 C21.3781513,15.1932773 21.7815126,15.5092437 22.1714286,15.902521 L22.1714286,15.902521 Z M14.897479,9.73781513 L13.7579832,8.47058824 C13.5798319,8.27563025 13.4957983,8.00336134 13.5294118,7.73445378 C13.5596639,7.48235294 13.6941176,7.25714286 13.8957983,7.1092437 L16.9210084,4.44705882 L16.2588235,3.71092437 C16.0638655,3.49579832 16.0067227,3.21680672 16.1042017,2.97478992 C16.2016807,2.72941176 16.4336134,2.56806723 16.7226891,2.54789916 L21.3378151,2.18823529 C21.3579832,2.18487395 21.3815126,2.18487395 21.4016807,2.18487395 C21.6302521,2.18487395 21.8352941,2.27563025 21.9831933,2.44369748 C22.1411765,2.62521008 22.205042,2.87394958 22.1512605,3.11932773 L21.1764706,7.66722689 C21.1159664,7.94957983 20.9277311,8.15798319 20.6756303,8.22521008 C20.6184874,8.23865546 20.5613445,8.2487395 20.5042017,8.2487395 C20.3058824,8.2487395 20.1109244,8.15798319 19.9630252,7.99327731 L19.2941176,7.25042017 L16.2554622,9.86218487 C16.0907563,10.0201681 15.8689076,10.1109244 15.6336134,10.1109244 C15.6067227,10.1109244 15.5831933,10.107563 15.5563025,10.107563 C15.297479,10.087395 15.0588235,9.95294118 14.897479,9.73781513 L14.897479,9.73781513 Z" id="Llamada-saliente_3Masa"></path>
        </g>
    </g>
</svg>

<svg width="24" height="24" viewBox="0 0 24 24" xmlns="http://www.w3.org/2000/svg"><path d="M22.171 15.903c.965.964 1.466 1.97 1.483 2.988.02 1.055-.478 2.12-1.472 3.166-.35.367-.837.716-.999.834-.01.006-.017.013-.02.013-.01.007-.02.014-.03.024-.676.467-1.533.699-2.525.699-1.038 0-2.228-.256-3.516-.77-2.625-1.045-5.495-3.082-8.302-5.889l-.007-.007-.087-.087c-.004 0-.004-.003-.007-.003C3.882 14.064 1.845 11.193.8 8.568-.202 6.058-.225 3.913.73 2.528a.185.185 0 01.023-.03A7.736 7.736 0 011.6 1.48C2.625.499 3.667.002 4.7.002h.063c1.019.02 2.024.518 2.988 1.483.39.39.71.793.945 1.2.517.833.706 1.697.558 2.561-.148.864-.629 1.708-1.436 2.514-.208.209-.35.333-.594.531-.078.142-.03.589.594 1.503.727 1.059 1.937 2.306 2.784 3.156l.1.101c.848.847 2.098 2.057 3.157 2.783.71.488 1.136.622 1.361.622a.26.26 0 00.141-.03c.199-.245.323-.387.531-.595.807-.807 1.654-1.29 2.515-1.435.191-.034.38-.047.568-.047.672 0 1.341.205 1.993.608.41.235.814.551 1.203.945zm-7.274-6.165L13.758 8.47a.925.925 0 01.138-1.362l3.025-2.662-.662-.736c-.195-.215-.252-.494-.155-.736.098-.246.33-.407.619-.427l4.615-.36c.02-.003.044-.003.064-.003a.76.76 0 01.75.934l-.976 4.548c-.06.283-.248.491-.5.558a.752.752 0 01-.172.024.732.732 0 01-.541-.256l-.669-.743-3.039 2.612a.897.897 0 01-.621.249c-.027 0-.05-.003-.078-.003a.915.915 0 01-.659-.37z" fill="#5CB615" fill-rule="nonzero"/></svg>
